X:1
T:Title
%%score { 1 | ( 2 3 ) }
L:1/8
M:2/2
K:Eb
V:1 treble nm="Grand Piano"
V:2 bass 
V:3 bass 
V:1
 z4 z2[Q:1/4=116] EF | G2 [EG]2 A2 AG | FG A2 G4 | E4 [CEF]4 |[M:3/4] [=B,DG]6 | %5
[M:1/4] [G,E][A,DF] |[M:4/4] [B,EG]2 [CEG]2 A2 AG | FG A2 G4 | [CEG]4 [CE=A]4 |[M:3/4] [B,DB]6 | %10
[M:1/4] [DAB]2 |[M:4/4] [EGe]2 [Ge]2 [Fd]2 [DFc][DFB] | [EGc]2 [EGc]2 [DAB]2 [DAB]2 | %13
 [EGe][EGe] [Ge]2 [Fd]2 [DFc][DFB] | [EGc]2 [EGc]2 [EGB]2 [DGB]2 | [EGB]2 [EGc][EGB] A2 cf | %16
 f2 ce d2 cc | B2 AA G2 FG | AG[CF][A,CE] [A,B,D]4 | [G,E]4 [A,DF]4 |[M:3/4] [G,E]6 |] %21
V:2
 z4 z2 [E,G,][E,A,D] | [E,B,E]2 [C,C]2 [F,CF]2 [F,CE][G,CE] | [A,CE]2 [B,D]2 [E,B,E]4 | %3
 [C,C]4 A,,4 |[M:3/4] G,,6 |[M:1/4] E,E, |[M:4/4] E,2 C,2 [F,CF]2 [F,CE][G,CE] | %7
 [A,CE]2 [B,D]2 [E,B,E]4 | C,4 F,4 |[M:3/4] B,,6 |[M:1/4] B,,2 |[M:4/4] B,2 B,2 [B,,B,]2 B,,B,, | %12
 B,2 B,2 B,,2 B,,2 | B,B, B,2 [B,,B,]2 B,,B,, | B,2 B,2 B,,2 A,2 | %15
 G,2 C,C,[K:treble] [F,CF]2 [A,CF][A,CF] | [A,CF]2 [=A,CF][A,CF] [B,F]2 [_A,DF][A,DF] | %17
 [G,EG]2[K:bass] [F,B,D][F,B,D] [E,B,E]2 [A,CE][G,CE] | [CE]2 z2 z4 | C,4 B,,4 |[M:3/4] E,6 |] %21
V:3
 x8 | x8 | x8 | x8 |[M:3/4] x6 |[M:1/4] x2 |[M:4/4] x8 | x8 | x8 |[M:3/4] x6 |[M:1/4] x2 | %11
[M:4/4] x8 | x8 | x8 | x8 | x4[K:treble] x4 | x8 | x2[K:bass] x6 | F,G,A,A,, B,,4 | x8 | %20
[M:3/4] x6 |] %21

